X: 199
T:Merry Month of May
% Nottingham Music Database
P:AABA
S:EF
M:6/8
K:A
P:A
|E|\
!segno!"A"A2A AGA|"E"B2c d2e|"D"f2f "A"ecA|"B7"AGA "E7"BGE|
"A"A2A AGA|"E"B2c d2e|"D"fga "A"edc|"E7"BAG "A"A2:|
P:B
A|"Bm"B2B B2c|"Bm"ded "E7"c2e|"A"a2e a2e|"A"cBA e2e|
"Bm"B2B B2c|"Bm"ded "E7"c2e|"A"a2e a2e|"Bm"efe "E7"dc\
P:D.S.
B||<end>
<start>
